X:805
M:6/8
L:1/8
K:E Minor
E>EE E>EE|D>ED D>CD|E>EE E>EE|G>EG A2G|E>EE E>EE|
c>AA B>AG|E2E E>DC|D>EG A2G||

